X:1
T:Insurance Man Blues
M:4/4
L:1/8
K:C
 _BG| BG _E=E C C3| z2 z _B c2 GC| EC EC C4-| C4 z2| _BG| B3 cc CC C|\
 c/2c/2 _B c2 GC C_E| C8| z4 z2 EE| F F/2F/2 F F/2F/2 F G2 G| _B/2B/2 B G/2B/2 E/2C/2 C/2C/2 C C2-|\
 C8| z4||
